!!!OTL: Ritter und Magd Es schlief ein Graf bei seiner Magd
!!!ARE: Europa, Mitteleuropa, Deutschland (), Sachsen - Anhalt
!!!YOR: 3, S. 62
!!    ????
!!!SCT: Q0055d
!!!YEM: Copyright 1995, estate of Helmut Schaffrath.
**kern
*ICvox
*Ivox
*M4/4
*k[f#]
*G:
{4d
=1
4g
4g
4g
8f#
8e
=2
4e
4d
4d}
{4d
=3
4.d
8g
4.b
8a
=4
4a
4g
4r}
{4d
=5
4g
4g
4g
8f#
8e
=6
4e
4d
4d}
{4d
=7
4.d
8g
4.b
8a
=8
4a
4g
4r}
==
!!!AGN: Ballade, Betrug, Schwangerschaft, Tod, Selbstmord, Herr und Magd
!!!ONB: ESAC (Essen Associative Code) Database: BALLADE
!!!AMT: simple quadruple
!!!AIN: vox
!!!EED: Helmut Schaffrath
!!!EEV: 1.0
*-
